packages/sources/assets/src/assets/flag-vu.svg

<svg width="28" height="20" viewBox="0 0 28 20" fill="none" xmlns="http://www.w3.org/2000/svg">
<rect width="28" height="20" rx="2" fill="white"/>
<mask id="mask0_503_3860" style="mask-type:alpha" maskUnits="userSpaceOnUse" x="0" y="0" width="28" height="20">
<rect width="28" height="20" rx="2" fill="white"/>
</mask>
<g mask="url(#mask0_503_3860)">
<g filter="url(#filter0_d_503_3860)">
<path fill-rule="evenodd" clip-rule="evenodd" d="M0 20H28V12H0V20Z" fill="#009543"/>
</g>
<g filter="url(#filter1_d_503_3860)">
<path fill-rule="evenodd" clip-rule="evenodd" d="M0 8H28V0H0V8Z" fill="#D21034"/>
</g>
<path fill-rule="evenodd" clip-rule="evenodd" d="M0 12H28V8H0V12Z" fill="#262626"/>
<path fill-rule="evenodd" clip-rule="evenodd" d="M0 0L13.3333 10L0 20V0Z" fill="#262626"/>
<path d="M-0.666646 17.3628V2.63717L9.52804 10L-0.666646 17.3628Z" stroke="#FDCE12" stroke-width="1.33333"/>
<path fill-rule="evenodd" clip-rule="evenodd" d="M9.33331 10.6667H28V9.33333H9.33331V10.6667Z" fill="#FDCE12"/>
</g>
<defs>
<filter id="filter0_d_503_3860" x="0" y="12" width="28" height="8" filterUnits="userSpaceOnUse" color-interpolation-filters="sRGB">
<feFlood flood-opacity="0" result="BackgroundImageFix"/>
<feColorMatrix in="SourceAlpha" type="matrix" values="0 0 0 0 0 0 0 0 0 0 0 0 0 0 0 0 0 0 127 0" result="hardAlpha"/>
<feOffset/>
<feColorMatrix type="matrix" values="0 0 0 0 0 0 0 0 0 0 0 0 0 0 0 0 0 0 0.06 0"/>
<feBlend mode="normal" in2="BackgroundImageFix" result="effect1_dropShadow_503_3860"/>
<feBlend mode="normal" in="SourceGraphic" in2="effect1_dropShadow_503_3860" result="shape"/>
</filter>
<filter id="filter1_d_503_3860" x="0" y="0" width="28" height="8" filterUnits="userSpaceOnUse" color-interpolation-filters="sRGB">
<feFlood flood-opacity="0" result="BackgroundImageFix"/>
<feColorMatrix in="SourceAlpha" type="matrix" values="0 0 0 0 0 0 0 0 0 0 0 0 0 0 0 0 0 0 127 0" result="hardAlpha"/>
<feOffset/>
<feColorMatrix type="matrix" values="0 0 0 0 0 0 0 0 0 0 0 0 0 0 0 0 0 0 0.06 0"/>
<feBlend mode="normal" in2="BackgroundImageFix" result="effect1_dropShadow_503_3860"/>
<feBlend mode="normal" in="SourceGraphic" in2="effect1_dropShadow_503_3860" result="shape"/>
</filter>
</defs>
</svg>

<svg width="28" height="20" fill="none" xmlns="http://www.w3.org/2000/svg"><rect width="28" height="20" rx="2" fill="#fff"/><mask id="a" style="mask-type:alpha" maskUnits="userSpaceOnUse" x="0" y="0" width="28" height="20"><rect width="28" height="20" rx="2" fill="#fff"/></mask><g mask="url(#a)"><g filter="url(#b)"><path fill-rule="evenodd" clip-rule="evenodd" d="M0 20h28v-8H0v8Z" fill="#009543"/></g><g filter="url(#c)"><path fill-rule="evenodd" clip-rule="evenodd" d="M0 8h28V0H0v8Z" fill="#D21034"/></g><path fill-rule="evenodd" clip-rule="evenodd" d="M0 12h28V8H0v4Z" fill="#262626"/><path fill-rule="evenodd" clip-rule="evenodd" d="m0 0 13.333 10L0 20V0Z" fill="#262626"/><path d="M-.667 17.363V2.637L9.528 10-.667 17.363Z" stroke="#FDCE12" stroke-width="1.333"/><path fill-rule="evenodd" clip-rule="evenodd" d="M9.333 10.667H28V9.333H9.333v1.334Z" fill="#FDCE12"/></g><defs><filter id="b" x="0" y="12" width="28" height="8" filterUnits="userSpaceOnUse" color-interpolation-filters="sRGB"><feFlood flood-opacity="0" result="BackgroundImageFix"/><feColorMatrix in="SourceAlpha" values="0 0 0 0 0 0 0 0 0 0 0 0 0 0 0 0 0 0 127 0" result="hardAlpha"/><feOffset/><feColorMatrix values="0 0 0 0 0 0 0 0 0 0 0 0 0 0 0 0 0 0 0.06 0"/><feBlend in2="BackgroundImageFix" result="effect1_dropShadow_503_3860"/><feBlend in="SourceGraphic" in2="effect1_dropShadow_503_3860" result="shape"/></filter><filter id="c" x="0" y="0" width="28" height="8" filterUnits="userSpaceOnUse" color-interpolation-filters="sRGB"><feFlood flood-opacity="0" result="BackgroundImageFix"/><feColorMatrix in="SourceAlpha" values="0 0 0 0 0 0 0 0 0 0 0 0 0 0 0 0 0 0 127 0" result="hardAlpha"/><feOffset/><feColorMatrix values="0 0 0 0 0 0 0 0 0 0 0 0 0 0 0 0 0 0 0.06 0"/><feBlend in2="BackgroundImageFix" result="effect1_dropShadow_503_3860"/><feBlend in="SourceGraphic" in2="effect1_dropShadow_503_3860" result="shape"/></filter></defs></svg>
